X:222
T:Polska efter Carl Sved
T:(SvL Hälsingland 222)
R:Polska
O:Delsbo, Hälsingland
S:Carl Sved
B:Svenska Låtar Hälsingland
Z:Till abc Jonas Brunskog
M:3/4
L:1/8
K:Bb
F2 B2 d2|{/e}cc/d/ B2 d2|ee dd cA|B(B/d/) c/B/A/G/ F/E/D/C/|
B,2 B2 d2|{/e}cc/d/ B2 d2|ee dd cc|d/c/B/A/ B2 B,2:|
|:Bc/d/ e/f/g/a/ b2|b/a/g/f/ g/f/e/d/ e/d/c/B/|gf ed cB|B(B/d/) c/B/A/G/ F/E/D/C/|
B,2 B2 d2|{/e}cc/d/ B2 d2|ee dd cc|d/c/B/A/ B2 B,2:|

